!!!COM: Louise Reichardt
!!!CNT: Deutsch
!!!TXO: Deutsch
!!!OTL: Unruhiger Schlaf
!!!LYR: von Arnim
!!!OPR: 
!!!OPS: No opus information available
!!!ONM: No. 10
!!!ENC: Ben Fuhrman
!!!YOR: Louise Reichardt: Songs
!!!YOR: New York, Da Capo Press, 1981
!!!ODT: 1800 - 1826
!!NB: Only vocal melody encoded.
!!NB: First instance of melodic material only encoded.
!!created: 2/17/10 4:09PM
!!proofed and posted: 2/17/10 4:09PM
**kern	**silbe
*clef G2	*
*k[b-e-a-]	*
*M2/4	*
*MM[Sanft Tra2umend]	*
{8e-	{Der
=1	=1
4e-	Kiersch-
4e-	-baum
=2	=2
4.en	blu2ht,
8g	ich
=3	=3
8cc	sit-
8b-	-ze
8a	da
8g	im
=4	=4
(8.g	Stil
16a)	|
4a}	-len;}
=5	=5
8r	.
{8a	{die
8b-	Blu2-
8cc	-the
=6	=6
4.B-	sinkt
8f	und
=7	=7
8b-	mag
8a-	die
8g	Lip-
8f	-pen
=8	8
4f	fu2l-
4e-}	-len,}
=9	=9
8r	.
{8g	{auch
8g	sinkt
8g	der
=10	=10
4.Bn	Mond
8d	schon
=11	=11
8g	in
8g	der
8.g	Er-
16d	-de
=12	=12
4e-}	Schooss,
16r	.
{16g	{und
16f	schein
16g	so
=13	=13
(8.a-	mun-
16d)	|
4d	-ter,
=14	=14
8b-	schein
8b-	so
8.b-	roth
16f	und
=15	=15
4g}	gross!}
8r	.
{8d	{die
=16	=16
8.a-	Ster-
16g	|
4g	-ne
=17	=17
8.a-	blin-
16g	|
4g	-ken
=18	=18
8dd	zwei-
16cc	-fel-
16bn	|
8a-	-haft
16g	|
16f	im
=19	=19
4f	Blau-
4e-}	-en,}
=20	=20
8r	.
{8cc	{und
8cc	lei-
8g	-dens
=21	=21
4.a-	nicht,
8cc	sie
=22	=22
8b-	wei-
8a-	-ter
8g	an-
8f	-zu-
=23	=23
(2e-	-schau-
B-q)	|
=24	=24
2B-}	-en!}
==	==
*-	*-
